X: 2062
T: Ârifem
C: Hacı Ârif Bey
O: Turkey
F: http://compmusic.upf.edu/node/140
N: kurdilihicazkar--sarki--duyek--arifem_ahkami--haci_arif_bey
N: makam= kurdilihicazkar
N: form= sarki
N: usul= duyek = 8/4
M: 8/4
L: 1/16
K: C _B _e _A 
Q: 1/4=114
%%MIDI tuningsystem comma53
f2 g4 d2 fe dc B4  | c2 d4 B2 c2 BA G4  | \
w:  ARANAĞME  |   | 
e2 f2 g2 a2 f4 g2 {b}ag  | 
w:   | 
g6 fe dc BA G4  | f2 g4 d2 fe dc B4  | \
w:   |   | 
c2 d4 B2 c2 BA G4  | 
w:   | 
a2 gf e2 dc B3A BA AG  | G6 cB BA AG G4  | \
w:   |   | 
f2 g4 d2 fe dc B4  | 
w:  ARANAĞME  | 
c2 d4 B2 c2 BA G4  | e2 f2 g2 a2 f4 g2 {b}ag  | \
w:   |   | 
g6 fe dc BA G4  | 
w:   | 
f2 g4 d2 fe dc B4  | c2 d4 B2 c2 BA G4  | \
w:   |   | 
a2 gf e2 dc B3A BA AG  | 
w:   | 
G6 cB BA AG G4  | z2 f4 g2 g4 g4  | g2 {b}_1/4ag fe dc g2 {b}ag g4  | 
w:   |  Â *  ri fem   |  ah *  *  *  *  *  *  *  kâm_ *  *  *  ı   | 
g2 a=b ag f2 _1/4e2 fg fe d2  | g2 a4 ag gf2=e g2 {b}ag  | 
w:  sev *  *  *  *  *  dâ *  *  dan   |  şi kâ yet_ *  ey *  *  *  *  le  | 
g6 ga gf =ef g4  | z2 f4 g2 g4 d2 =e2  | \
w:  mem   SAZ  |  Sen den_ ey  şûh_  | 
f2 a2 g2 f2 e2 {f}ed c4  | 
w:  *  i  *  *  ci *  *  *  hân   | 
z2 f2 =e2 f2 ga ag g4  | d2 {f}ed c2 {d}cB B3A BA AG  | 
w:  öl *  *  sem   |  fe *  râ *  *  *  gat  *  ey *  *  *  le  | 
G6 ga gf =ef g4  | z2 f4 g2 g4 d2 =e2  | \
w:  mem   SAZ  |  Sen den_ ey  şûh_  | 
f2 a2 g2 f2 e2 {f}ed c4  | 
w:  *  i  *  *  ci *  *  *  hân   | 
z2 f2 =e2 f2 ga ag g4  | d2 {f}ed c2 {d}cB B3A BA AG  | 
w:  öl *  *  sem   |  fe *  râ *  *  *  gat  *  ey *  *  *  le  | 
G6 ga g^f ef g4  | z2 ^fg f2 g2 g4 g4  | \
w:  mem   SAZ  |  Sûz_ *  *  i  hic rin  | 
g2 a2 =b2 c'2 ba g^f g4  | 
w:  le  *  *  *  ya *  *  *  nar   | 
g2 d'2 c'2 =b2 b3a ba ag  | a6 g2 a=b ag a4  | \
w:  ya nar  *  *  ağ  |  lar   | 
g2 c'4 c'=b b3a ba ag  | 
w:  ne dâ met_ *  ey *  *  *  le  | 
g6 d2 e2 f2 g4  | z2 f4 g2 g4 d2 =e2  | \
w:  mem   SAZ  |  Sen den_ ey  şûh_  | 
f2 a2 g2 f2 e2 {f}ed c4  | z2 f2 =e2 f2 ga ag g4  | 
w:  *  i  *  *  ci *  *  *  hân   |  öl *  *  sem   | 
d2 {f}ed c2 {d}cB B3A BA AG  | G6 ga gf =ef g4  | \
w:  fe *  râ *  *  *  gat  *  ey *  *  *  le  |  mem   SAZ  | 
z2 f4 g2 g4 d2 =e2  | 
w:  Sen den_ ey  şûh_  | 
f2 a2 g2 f2 e2 {f}ed c4  | z2 f2 =e2 f2 ga ag g4  | \
w:  *  i  *  *  ci *  *  *  hân   |  öl *  *  sem   | 
d2 {f}ed c2 {d}cB B3A BA AG  | 
w:  fe *  râ *  *  *  gat  *  ey *  *  *  le  | 
G6 |
w:  mem    | 


